X:1
T:Wonderful Grace
T:Wonderful Grace
T:Isaiah Baltzell
T:W. H. Burrell, 1875
T:Public Domain Courtesy of the Cyber Hymnal™
C:Isaiah Baltzell
Z:Public Domain
Z:Courtesy of the Cyber Hymnal™
%%score ( 1 2 ) ( 3 4 )
L:1/8
Q:1/4=102
M:6/8
K:Eb
V:1 treble 
V:2 treble 
V:3 bass 
V:4 bass 
V:1
 [EG] | [EG]2 [EG] [EG]2 [EG] | [FA][GB][Ac] [GB]2 [GB] | [Ge]2 [GB] [EG]2 E | [DF]3- [DF]2 [EG] | %5
w: 1.~’Tis|grace! ’tis grace! ’tis|won- der- ful grace! This|great sal- va- tion|brings; * The|
w: 2.~’Tis|grace! ’tis grace! ’tis|won- der- ful grace! Which|saves the soul from|sin; * The|
w: 3.~’Tis|grace! ’tis grace! ’tis|won- der- ful grace! Its|streams are full and|free; * Are|
w: 4.~’Tis|grace! ’tis grace! ’tis|won- der- ful grace! Which|bears the soul a-|bove; * The|
 [EG]2 [EG] [EG]2 [EG] | ([FA][GB])[Ac] [GB]2 [GB] | [Ge]2 [Ge] [Fd]2 [Ec] | [DB]3- [DB]2 || %9
w: soul, de- liv- ered|of * its load, In|sweet- est rap- ture|sings. *|
w: power of ris- ing|e- * vil slays, And|reigns su- preme with-|in. *|
w: flow- ing now for|all * the race; They|ev- en flow to|me. *|
w: light which gleams from|Je- * sus’ face Is|rap- ture, peace and|love. *|
"^Refrain" [GB] | e3- [Ge]2 [EG] | c3- [Ac]2 z | [Fd][Fd][Fd] [Fd][Ac][Ad] | e3 [GB]2 [GB] | %14
w: |||||
w: ’Tis|grace! ’Tis grace!|* ~|* ~ ~ ~ ~ ~|grace! ’Tis grace!|
w: |||||
w: |||||
 c3- [Ac]2 [Ae] | B3- [GB]2 z | [Fd][Fd][Fd] [DB][Ec][Fd] | [Ge]3- [Ge]2 |] %18
w: ||||
w: * ’tis grace!||||
w: ||||
w: ||||
V:2
 x | x6 | x6 | x5 E | x6 | x6 | x6 | x6 | x5 || x | GGG x3 | EEE x3 | x6 | GGG x3 | AAA x3 | %15
 GGG x3 | x6 | x5 |] %18
V:3
 [E,B,] | [E,B,]2 [E,B,] [E,B,]2 [E,B,] | [E,B,][E,E][E,E] [E,E]2 [E,E] | %3
w: ~|~ ~ ~ ~|~ ~ ~ ~ ~|
 [E,B,]2 [E,B,] [E,B,]2 [E,G,] | [B,,B,]3- [B,,B,]2 [E,B,] | [E,B,]2 [E,B,] [E,B,]2 [E,B,] | %6
w: ~ ~ ~ ~|~ * ~|~ ~ ~ ~|
 [E,B,]2 [E,E] [E,E]2 [E,E] | [E,B,]2 [E,B,] [F,B,]2 [F,=A,] | [B,,B,]3- [B,,B,]2 || [E,B,] | %10
w: ~ ~ ~ ~|~ ~ ~ ~|~ *|’Tis|
 [E,B,][E,B,][E,B,] [E,B,]2 [E,B,] | A,A,[A,C] [A,E]2 z | B,B,B, [B,,B,][B,,B,][B,,B,] | %13
w: won- der- ful grace! ’Tis|won- der- ful grace!|Won- der- ful, won- der- ful,|
 [E,B,][E,B,][E,B,] [E,B,]2 [E,E] | [A,E][A,E][A,E] [A,E]2 [C,E] | [E,E][E,E][E,E] [E,E]2 z | %16
w: won- der- ful grace! ’Tis|won- der- ful grace! ’Tis|won- der- ful grace!|
 B,B,B, [B,,B,][B,,B,][B,,B,] | [E,B,]3- [E,B,]2 |] %18
w: Flow- ing still, free- ly for|me. *|
V:4
 x | x6 | x6 | x6 | x6 | x6 | x6 | x6 | x5 || x | x6 | A,A, x4 | B,B,B, x3 | x6 | x6 | x6 | %16
 B,B,B, x3 | x5 |] %18

